X:102
T:Braneles Chasene
O:klezmer
C:Dave Tarras
M:2/4
L:1/8
Q:1/4=116
K:F
V:1
"Dm" A2 d2 |f2 a2 |^ga ^gf |eg ed |
"Gm" d'2 c'/b/a |^g/a/b c'/b/a |^ga3 |a4 |
"A7" A2 ^c2 |e2 g2 |ab3 |be f^g |
"Dm" ^ga2 ^g|"A7" a/^g/ ff/e/ d|1  (3e^ce  (3^c'ba |"Gm" gf/g/ "Dm" f/e/d :|2
"Dm" d2 "C#" ^c2 |"C7" c3 z|| |:"F" f3/2 A/cf |"C7" ga gf |
"F" c'3/2 f/ac' |"C7" ba gf |"F" bc'2 c'|"C"  (3bc'd' e'/d'/c' |
"F" b/d'/c'3 |c'4 |f3/2 f/ga |"C7" bc' d'e' |
"F" f'3/2 f/ac' |"C7" ba gf |"F" a2 d/e/f |"A7" a/^g/f f/e/d |
|1 "Dm" d2 d2 |d3 z:|2 "Dm" d4 |dA df || |:
"Dm" a2 a/^g/f |a/^g/f a2 |d'2  (3c'ba |a/^g/f f2 |
d3/2 e/fa |"A7" ^g/a/b c'/b/a |"Dm" ^g/b/a3 |aA df |
a2 a/^g/f |a/^g/f a2 |d'2  (3c'ba | (3a^gf f2 |
"A7" eA ^ce |"Gm" gb a^g |"A7" a/^g/f f/e/d |"Dm" d3 z:|





